packages/opendesign/src/icons/svgs/fill/tips2.svg

<?xml version="1.0" encoding="UTF-8"?>
<svg width="24px" height="24px" viewBox="0 0 24 24" version="1.1" xmlns="http://www.w3.org/2000/svg" xmlns:xlink="http://www.w3.org/1999/xlink">
    <title>tips2</title>
    <g id="tips2" stroke="none" stroke-width="1" fill="none" fill-rule="evenodd">
        <path d="M12,1.3 C13.1111573,1.3 14.2002822,1.46963392 15.2392212,1.79926977 C15.6077175,1.91618669 15.8116628,2.30969181 15.6947458,2.67818803 C15.5778289,3.04668426 15.1843238,3.25062958 14.8158276,3.13371265 C13.9134204,2.84739581 12.967074,2.7 12,2.7 C6.86375183,2.7 2.7,6.86375183 2.7,12 C2.7,17.1362482 6.86375183,21.3 12,21.3 C17.1362482,21.3 21.3,17.1362482 21.3,12 C21.3,9.02216479 19.8916528,6.28006422 17.5475533,4.53500342 C17.2374495,4.30414713 17.1732066,3.86561227 17.4040629,3.5555084 C17.6349192,3.24540453 18.073454,3.18116167 18.3835579,3.41201796 C21.0788388,5.41851516 22.7,8.57497193 22.7,12 C22.7,17.9094468 17.9094468,22.7 12,22.7 C6.09055318,22.7 1.3,17.9094468 1.3,12 C1.3,6.09055318 6.09055318,1.3 12,1.3 Z M12,8.5 C12.3796958,8.5 12.693491,8.78215388 12.7431534,9.14822944 L12.75,9.25 L12.75,17.25 C12.75,17.6642136 12.4142136,18 12,18 C11.6203042,18 11.306509,17.7178461 11.2568466,17.3517706 L11.25,17.25 L11.25,9.25 C11.25,8.83578644 11.5857864,8.5 12,8.5 Z M12,5.75 C12.5522847,5.75 13,6.19771525 13,6.75 C13,7.30228475 12.5522847,7.75 12,7.75 C11.4477153,7.75 11,7.30228475 11,6.75 C11,6.19771525 11.4477153,5.75 12,5.75 Z" id="path1" fill="#000000"></path>
    </g>
</svg>

<!-- Generated by IcoMoon.io -->
<svg version="1.1" xmlns="http://www.w3.org/2000/svg" width="24" height="24" viewBox="0 0 24 24">
<title>tips2</title>
<path d="M12 1.3c1.111 0 2.2 0.17 3.239 0.499 0.369 0.117 0.572 0.51 0.456 0.879s-0.51 0.572-0.879 0.456c-0.902-0.286-1.849-0.434-2.816-0.434-5.136 0-9.3 4.164-9.3 9.3s4.164 9.3 9.3 9.3c5.136 0 9.3-4.164 9.3-9.3 0-2.978-1.408-5.72-3.752-7.465-0.31-0.231-0.374-0.669-0.143-0.98s0.669-0.374 0.98-0.143c2.695 2.007 4.316 5.163 4.316 8.588 0 5.909-4.791 10.7-10.7 10.7s-10.7-4.791-10.7-10.7c0-5.909 4.791-10.7 10.7-10.7zM12 8.5c0.38 0 0.693 0.282 0.743 0.648l0.007 0.102v8c0 0.414-0.336 0.75-0.75 0.75-0.38 0-0.693-0.282-0.743-0.648l-0.007-0.102v-8c0-0.414 0.336-0.75 0.75-0.75zM12 5.75c0.552 0 1 0.448 1 1s-0.448 1-1 1c-0.552 0-1-0.448-1-1s0.448-1 1-1z"></path>
</svg>
